src/icons/file-ts-def.svg

<?xml version="1.0" encoding="UTF-8" standalone="no"?>
<svg
   version="1.2"
   viewBox="0 0 16 16"
   width="16"
   height="16"
   id="svg2"
   sodipodi:docname="ts-def-test.svg"
   inkscape:version="1.4 (e7c3feb100, 2024-10-09)"
   xmlns:inkscape="http://www.inkscape.org/namespaces/inkscape"
   xmlns:sodipodi="http://sodipodi.sourceforge.net/DTD/sodipodi-0.dtd"
   xmlns="http://www.w3.org/2000/svg"
   xmlns:svg="http://www.w3.org/2000/svg">
  <defs
     id="defs2" />
  <sodipodi:namedview
     id="namedview2"
     pagecolor="#505050"
     bordercolor="#eeeeee"
     borderopacity="1"
     inkscape:showpageshadow="0"
     inkscape:pageopacity="0"
     inkscape:pagecheckerboard="0"
     inkscape:deskcolor="#505050"
     inkscape:zoom="26.693281"
     inkscape:cx="5.3384221"
     inkscape:cy="8.953564"
     inkscape:window-width="1312"
     inkscape:window-height="755"
     inkscape:window-x="20"
     inkscape:window-y="20"
     inkscape:window-maximized="0"
     inkscape:current-layer="svg2" />
  <title
     id="title1">ts</title>
  <style
     id="style1">
		.s0 { fill: #7380f9 } 
		.s1 { fill: #8080a0 } 
	</style>
  <g
     id="Layer 1">
    <path
       id="path1"
       class="s0"
       d="M 10.285156 3 L 8.9160156 5.7695312 L 7.6054688 6.6679688 L 3 7.7539062 L 3 11 C 3 12.4 3.0007813 13.099609 3.3007812 13.599609 C 3.5007813 14.099609 3.9003906 14.499219 4.4003906 14.699219 C 4.9003906 14.999219 5.6 15 7 15 L 11 15 C 12.4 15 13.099609 14.999219 13.599609 14.699219 C 14.099609 14.499219 14.499219 14.099609 14.699219 13.599609 C 14.999219 13.099609 15 12.4 15 11 L 15 7 C 15 5.6 14.999219 4.9003906 14.699219 4.4003906 C 14.499219 3.9003906 14.099609 3.5007813 13.599609 3.3007812 C 13.099609 3.0007813 12.4 3 11 3 L 10.285156 3 z M 5.0996094 8.4003906 L 8.1992188 8.4003906 C 8.7992188 8.4003906 9.0996094 8.6 9.0996094 9 C 9.0996094 9.1333333 9.033724 9.2341146 8.9003906 9.3007812 C 8.7670573 9.4341146 8.6003906 9.5 8.4003906 9.5 L 7.4003906 9.5 L 7.4003906 13.300781 C 7.4003906 13.834115 7.1658854 14.099609 6.6992188 14.099609 C 6.1658854 14.099609 5.9003906 13.834115 5.9003906 13.300781 L 5.9003906 9.5 L 5.0996094 9.5 C 4.8329427 9.5 4.6333333 9.4341146 4.5 9.3007812 C 4.3666667 9.2341146 4.3007813 9.1333333 4.3007812 9 C 4.3007812 8.8 4.3666667 8.666276 4.5 8.5996094 C 4.6333333 8.466276 4.8329427 8.4003906 5.0996094 8.4003906 z M 12.300781 8.4003906 C 12.634115 8.4003906 12.967448 8.4333333 13.300781 8.5 C 13.567448 8.5666667 13.832943 8.7003906 14.099609 8.9003906 L 14.400391 9.1992188 C 14.467057 9.3325521 14.5 9.466276 14.5 9.5996094 C 14.5 9.7329427 14.434115 9.8666667 14.300781 10 C 14.167448 10.066667 14.033724 10.099609 13.900391 10.099609 C 13.700391 10.099609 13.533724 10.066667 13.400391 10 C 13.333724 9.9333333 13.232943 9.8674479 13.099609 9.8007812 C 13.032943 9.6674479 12.934115 9.5666667 12.800781 9.5 C 12.667448 9.4333333 12.500781 9.4003906 12.300781 9.4003906 C 12.100781 9.4003906 11.934115 9.4333333 11.800781 9.5 C 11.734115 9.5 11.666276 9.5658854 11.599609 9.6992188 C 11.532943 9.7658854 11.5 9.833724 11.5 9.9003906 C 11.5 10.033724 11.565885 10.167448 11.699219 10.300781 C 11.899219 10.434115 12.199609 10.532943 12.599609 10.599609 C 12.999609 10.732943 13.365885 10.866667 13.699219 11 C 13.965885 11.133333 14.200391 11.3 14.400391 11.5 C 14.600391 11.766667 14.699219 12.067057 14.699219 12.400391 C 14.699219 12.733724 14.600391 13.034115 14.400391 13.300781 C 14.133724 13.567448 13.833333 13.767057 13.5 13.900391 C 13.166667 14.033724 12.732552 14.099609 12.199219 14.099609 C 11.799219 14.099609 11.432943 14.033724 11.099609 13.900391 C 10.766276 13.833724 10.500781 13.7 10.300781 13.5 C 10.034115 13.3 9.9003906 13.067448 9.9003906 12.800781 C 9.9003906 12.667448 9.9333333 12.533724 10 12.400391 C 10.066667 12.267057 10.200391 12.199219 10.400391 12.199219 C 10.600391 12.199219 10.767057 12.234115 10.900391 12.300781 C 11.033724 12.367448 11.132552 12.466276 11.199219 12.599609 C 11.332552 12.732943 11.499219 12.833724 11.699219 12.900391 C 11.832552 12.967057 12.034115 13 12.300781 13 L 12.699219 13 C 12.832552 12.933333 12.933333 12.867448 13 12.800781 C 13.133333 12.667448 13.199219 12.566667 13.199219 12.5 C 13.199219 12.3 13.100391 12.133333 12.900391 12 C 12.700391 11.933333 12.4 11.867448 12 11.800781 C 11.266667 11.600781 10.733724 11.366276 10.400391 11.099609 C 10.133724 10.766276 10 10.367057 10 9.9003906 C 10 9.633724 10.100781 9.366276 10.300781 9.0996094 C 10.500781 8.8996094 10.766276 8.7329427 11.099609 8.5996094 C 11.499609 8.466276 11.900781 8.4003906 12.300781 8.4003906 z " />
  </g>
  <path
     id="path2"
     class="s1"
     d="M 6 0 C 5.9 0 5.7003906 0.099609375 5.4003906 0.099609375 L 1.4003906 1.1992188 C 0.90039062 1.2992188 0.60078125 1.3996094 0.30078125 1.5996094 C 0.16744792 1.7329427 0.066666667 1.9325521 0 2.1992188 C -0.1 2.4992187 -0.00078125 2.8003906 0.19921875 3.4003906 L 0.69921875 5.3007812 C 0.89921875 5.9007812 0.99960937 6.2003906 1.0996094 6.4003906 C 1.2996094 6.6003906 1.4992187 6.6992187 1.6992188 6.6992188 C 1.9992187 6.7992187 2.3003906 6.6996094 2.9003906 6.5996094 L 6.9003906 5.5 C 7.2003906 5.4 7.3003906 5.4007813 7.4003906 5.3007812 C 7.533724 5.2341146 7.6325521 5.166276 7.6992188 5.0996094 C 7.7992187 4.9996094 7.9 4.8992188 8 4.6992188 L 8.6992188 3.4003906 C 8.9992188 2.9003906 9.1992188 2.6003906 9.1992188 2.4003906 C 9.1992188 2.133724 9.1333333 1.8992187 9 1.6992188 C 8.8 1.3992187 8.6 1.3 8 1 L 6.8007812 0.30078125 C 6.6007812 0.20078125 6.5003906 0.099609375 6.4003906 0.099609375 C 6.2670573 0.032942708 6.1333333 1.8503717e-17 6 0 z M 6.5761719 1.4960938 C 7.1761719 1.4960938 7.5761719 1.8960938 7.5761719 2.4960938 C 7.5761719 3.0960938 7.1761719 3.4960938 6.5761719 3.4960938 C 5.9761719 3.4960938 5.5761719 3.0960938 5.5761719 2.4960938 C 5.5761719 1.8960937 5.9761719 1.4960937 6.5761719 1.4960938 z "
     style="fill:#5bafd4;fill-opacity:1" />
</svg>

<svg xmlns="http://www.w3.org/2000/svg" width="16" height="16" version="1.2"><path d="M10.285 3 8.916 5.77l-1.31.898L3 7.754V11c0 1.4 0 2.1.3 2.6.2.5.6.9 1.1 1.1.5.3 1.2.3 2.6.3h4c1.4 0 2.1 0 2.6-.3.5-.2.9-.6 1.1-1.1.3-.5.3-1.2.3-2.6V7c0-1.4 0-2.1-.3-2.6-.2-.5-.6-.9-1.1-1.1C13.1 3 12.4 3 11 3zM5.1 8.4h3.1q.9 0 .9.6 0 .2-.2.3-.2.2-.5.2h-1v3.8q0 .8-.7.8-.8 0-.8-.8V9.5h-.8q-.4 0-.6-.2-.2-.1-.2-.3 0-.3.2-.4.2-.2.6-.2m7.2 0q.5 0 1 .1.4.1.8.4l.3.3q.1.2.1.4t-.2.4a.9.9 0 0 1-.4.1q-.3 0-.5-.1a1.2 1.2 0 0 0-.3-.2.65.65 0 0 0-.3-.3q-.2-.1-.5-.1t-.5.1q-.1 0-.2.2-.1.1-.1.2 0 .2.2.4.3.2.9.3.6.2 1.1.4.4.2.7.5.3.4.3.9 0 .501-.3.9a2.7 2.7 0 0 1-.9.6q-.5.2-1.3.2-.6 0-1.1-.2-.5-.1-.8-.4-.4-.3-.4-.7 0-.2.1-.4t.4-.2.5.1a.65.65 0 0 1 .3.3q.2.2.5.3.2.1.6.1h.4a1.2 1.2 0 0 0 .3-.2q.2-.2.2-.3 0-.3-.3-.5-.3-.1-.9-.2-1.1-.3-1.6-.7-.4-.5-.4-1.2 0-.4.3-.8.3-.3.8-.5.6-.2 1.2-.2" style="fill:#7380f9"/><path d="M6 0c-.1 0-.3.1-.6.1l-4 1.1c-.5.1-.8.2-1.1.4q-.2.2-.3.6c-.1.3 0 .6.2 1.2l.5 1.9c.2.6.3.9.4 1.1q.3.3.6.3c.3.1.6 0 1.2-.1l4-1.1c.3-.1.4-.1.5-.2q.2-.1.3-.2c.1-.1.2-.2.3-.4l.7-1.3c.3-.5.5-.8.5-1q0-.4-.2-.7c-.2-.3-.4-.4-1-.7L6.8.3C6.6.2 6.5.1 6.4.1A.9.9 0 0 0 6 0m.576 1.496c.6 0 1 .4 1 1s-.4 1-1 1-1-.4-1-1 .4-1 1-1" style="fill:#5bafd4;fill-opacity:1"/></svg>
